X: 1
T: reel des Ti-minous
T: reel of the Little kittens
O: Qu\'ebec
R: reel
Z: 2012 John Chambers <jc:trillian.mit.edu>
M: 2/4
L: 1/16
K: G
(3def |\
"G"g2B2 d2G2 | B2D2 G3B | "D7"A2FA DFAF |1,3 "G"GABc "D7"d"#"def :|2,4 "G"GB"D7"AF "G"G2 :|
|: GA |\
"G"BdBA GFGB | "(D)"ed^ce "G"d2B2 | "D7"ABAG FDFA | d^cde d2cd |
"G"BdBA G2gf | "C"edef e2d2 | "D7"d2fe dcBA | "G"GgdB G2 :|
